Obsidian-SemiLight/actions/24s/draw-text.svg

<svg viewBox="0 0 24 24" xmlns="http://www.w3.org/2000/svg"><path d="m4 4v3h1v10h-1v3h3v-1h10v1h3v-3h-1v-10h1v-3h-3v1h-10v-1zm1 1h1v1h-1zm13 0h1v1h-1zm-11 1h10v1h1v10h-1v1h-10v-1h-1v-10h1zm0 2v2h4v7h2v-7h4v-2zm-2 10h1v1h-1zm13 0h1v1h-1z" fill="#4d4d4d"/></svg>

<svg xmlns="http://www.w3.org/2000/svg" viewBox="0 0 24 24">
  <defs id="defs3051">
    <style type="text/css" id="current-color-scheme">
      .ColorScheme-Text {
        color:#4d4d4d;
      }
      </style>
  </defs>
 <path style="fill:currentColor;fill-opacity:1;stroke:none" 
     d="M 4 4 L 4 7 L 5 7 L 5 17 L 4 17 L 4 20 L 7 20 L 7 19 L 17 19 L 17 20 L 20 20 L 20 17 L 19 17 L 19 7 L 20 7 L 20 4 L 17 4 L 17 5 L 7 5 L 7 4 L 4 4 z M 5 5 L 6 5 L 6 6 L 5 6 L 5 5 z M 18 5 L 19 5 L 19 6 L 18 6 L 18 5 z M 7 6 L 17 6 L 17 7 L 18 7 L 18 17 L 17 17 L 17 18 L 7 18 L 7 17 L 6 17 L 6 7 L 7 7 L 7 6 z M 7 8 L 7 10 L 11 10 L 11 17 L 13 17 L 13 10 L 17 10 L 17 8 L 7 8 z M 5 18 L 6 18 L 6 19 L 5 19 L 5 18 z M 18 18 L 19 18 L 19 19 L 18 19 L 18 18 z "
     class="ColorScheme-Text"
     />
</svg>
